X:1
T:Title
%%score ( 1 2 ) ( 3 4 )
L:1/8
M:3/4
K:D
V:1 treble nm="Choir Aahs, Staff"
V:2 treble 
V:3 bass nm="Choir Aahs, Staff-1"
V:4 bass 
V:1
 [DA]2 A2 d2 | cB [DA]4 | [CF]2 D4 | [CE]2 [DF]4 | [DF]2 [CE]2 [EA]2 | [EB]2 [Ec]2 [Ee]2- | %6
w: By~Thomas~Attwood,~1831 * *||||||
 [Ee]2 [CA][^DB] [Ec]2 | cB [CA]4 | [CA]2 A2 F2 | [DG]2 E2- [CE]2 | [CE]2 A2 F2 | [DB]2 [CE]4- | %12
w: ||||||
 [CE]2 [B,E]2 [EG]2 | [^DF]2 E2 [B,G]2 | z2 z2 E2- | E2 z2 z2 | z6 | [EA]2 [EA]2 [Dd]2 | %18
w: ||||||
 [DF]2 [DE]2 [CB]2 | [CA]2 G2 F2 | [DF]2 [DG]2 [=CA]2 | [B,B]2 [CA]2 [A,C]2 | [A,D]2 [EG]4 | %23
w: |||||
 [CE]2 [CE]2 [DF]2 | [EA]2 d2 c2 | [DB]2 [CA]2 C2 | [B,D]2 [EG]4 | [CE]2 D4 |] %28
w: |||||
V:2
 z2 D4 | D2 z2 z2 | x6 | x6 | x6 | x6 | x6 | D2 z2 z2 | z2 D4 | z2 D2 z2 | z2 D4 | x6 | x6 | x6 | %14
 [A,F]2 [^G,E]2 B,2 | D2 [CE]4- | [CE]2 [EA]2 [FA]2 | x6 | x6 | z2 D4 | x6 | x6 | x6 | x6 | z2 F4 | %25
 x6 | x6 | x6 |] %28
V:3
 [D,F,]2 [D,F,]4 | [D,G,]2 [D,F,]4 | [F,A,]2 B,4 | A,2 [D,A,]4 | [D,A,]2 A,2- [C,A,]2 | %5
 [E,^G,]2 A,2 [C,A,]2- | [C,A,]2 A,2- [E,A,]2 | [E,^G,]2 [A,,A,]4 | [A,,A,]2 F,2 [D,A,]2 | %9
 [B,,G,]2 [A,,A,]4 | [G,A,]2 [F,A,]2 B,2 | [G,B,]2 A,4- | A,2 [E,G,]2 [B,,B,]2 | %13
 [B,,A,]2 [=C,G,]2 [G,,E,]2 | z2 z2 ^G,2- | G,2 z2 z2 | z6 | [A,,G,]2 [A,,F,]4 | %18
 [A,,F,]2 [A,,G,]4 | [A,,E,]2 [B,,D,]4 | z2 D4 | z2 A,4 | [F,A,]2 [E,B,]4 | [A,,A,]2 [D,A,]4 | %24
 z2 .F,2 z2 | [G,,G,]2 [A,,E,]2 [^A,,G,]2 | [B,,F,]2 [G,,B,]4 | [A,,G,]2 [D,F,]4 |] %28
V:4
 x6 | x6 | x6 | x6 | z2 A,,2 z2 | x6 | z2 F,2 z2 | x6 | x6 | x6 | x6 | x6 | x6 | x6 | %14
 [B,,^D,]2 E,2 z2 | E,2 [A,,A,]4- | [A,,A,]2 [A,,G,]2 [A,,G,]2 | x6 | x6 | x6 | %20
 [=C,A,]2 B,,2 A,,2 | [G,,D]2 G,,2 G,2 | x6 | x6 | [C,A,]2 B,,-[B,,B,] [F,,A,]2 | x6 | x6 | x6 |] %28

